X:848
T:Reel 848
M:4/4
K:Gmaj
L:1/8
GA|BEEG D3E|DEDB, cEGA|BEED EFGA|BAAc A2BA|GEEF G3E|DEGA B2Bc|dBcB BAGB|AGAB G2|Bd|gfge d2Bd|gabg e2dB|GABc dega|bage d2ef|gfgB d2gd|edef g2 (3def |gefB ecBG|AGAB G2|
